app/dist/common/images/gigacloud-technology.svg

<svg height="18" viewBox="0 0 18 18" width="18" xmlns="http://www.w3.org/2000/svg"><path d="m0 0h18v18h-18z" fill="#f0f3fa"/><path d="m9 4.17c-.27 0-.54.03-.8.07l-.4-1.12a6.02 6.02 0 0 1 7.2 5.88 6 6 0 1 1 -11.56-2.23l-.94-.47 2.45-1.45.05-.03v2.72l-.5-.25a4.82 4.82 0 1 0 4.5-3.12z" fill="#193465"/><path d="m6.14 10.58 2.6 1.33 2.58-1.19v-1.4l.9-.59-1.01-1.3-2.47-1.3-2.52 1.24-.85 1.38.77.36z"/><g fill="#c16b30"><path d="m6.32 7.54-.7 1.17 2.53 1.13.44-1.05z"/><path d="m8.64 11.68v-2.53l-.38.92-1.96-.87v1.3l2.33 1.18zm2.51-4.06.85 1.05-2.2 1.45-.97-1.23 2.33-1.27z"/><path d="m8.82 11.68v-2.53l.96 1.16 1.37-.88v1.22z"/></g><path d="m8.14 6.6-1.65.83 1.65.9zm.61-.32-.48.26v1.86l.52.32 2.23-1.23z" fill="#713712"/></svg>

<!-- by TradingView --><svg width="18" height="18" viewBox="0 0 18 18" xmlns="http://www.w3.org/2000/svg"><path fill="#F0F3FA" d="M0 0h18v18H0z"/><path d="M9 4.17c-.27 0-.54.03-.8.07L7.8 3.12A6.02 6.02 0 0 1 15 9 6 6 0 1 1 3.44 6.77L2.5 6.3l2.45-1.45.05-.03V7.54l-.5-.25A4.82 4.82 0 1 0 9 4.17Z" fill="#193465"/><path d="m6.14 10.58 2.6 1.33 2.58-1.19v-1.4l.9-.59-1.01-1.3-2.47-1.3-2.52 1.24-.85 1.38.77.36v1.47Z"/><path d="m6.32 7.54-.7 1.17 2.53 1.13.44-1.05-2.27-1.25Z" fill="#C16B30"/><path d="M8.64 11.68V9.15l-.38.92L6.3 9.2v1.3l2.33 1.18ZM11.15 7.62 12 8.67l-2.2 1.45-.97-1.23 2.33-1.27Z" fill="#C16B30"/><path d="M8.82 11.68V9.15l.96 1.16 1.37-.88v1.22l-2.33 1.03Z" fill="#C16B30"/><path d="m8.14 6.6-1.65.83 1.65.9V6.6ZM8.75 6.28l-.48.26V8.4l.52.32 2.23-1.23-2.27-1.21Z" fill="#713712"/></svg>
